X: 21101
T: O HEY, JOHHNY LAD -- Strathspey
R: strathspey
B: K\"ohler's Violin Repository, v.2, 1885 p.110 #1
F: http://www.archive.org/details/klersviolinrepos02rugg
Z: 2012 John Chambers <jc:trillian.mit.edu>
M: C|
L: 1/8
K: A
uE |\
A2(A>c) (B>A)(B>c) | (.A>.F)(E>F) B<B B>c | A2(A>c) (B>A)(B>c) | (.A>.F)(E>F) A<A A :|
uc |\
(.e>.f)(a>c) (.B>.A)(B>c) | (.e>.f)(a>e) f<ff>a | (.e>.a)(e>c) (.B>.A)(B>c) | (.A>.F)(E>F) A<AA>f |
(.e>.f)(a>c) (.B>.A)(B>c) | (.e>.f)(a>e) f<f(f>a) | (e<a) (c<a) (B>A)B>c | A>F(E>F) A<A "^D.C.""_Segue Reel."A |]

%%sep 2 1 500

